integreat_cms/static/src/svg/clock.svg

<svg xmlns="http://www.w3.org/2000/svg" width="16" height="16" viewBox="0 0 468.067 468.067"><path d="M431.38.225H36.685C16.458.225 0 16.674 0 36.898v394.268c0 20.221 16.458 36.677 36.685 36.677H431.38c20.232 0 36.688-16.456 36.688-36.677V36.898C468.062 16.668 451.606.225 431.38.225zm-24.861 41.744c8.678 0 15.711 7.04 15.711 15.72 0 8.683-7.033 15.717-15.711 15.717-8.688 0-15.723-7.04-15.723-15.717 0-8.68 7.034-15.72 15.723-15.72zm-56.33 0c8.688 0 15.723 7.04 15.723 15.72 0 8.683-7.034 15.717-15.723 15.717-8.684 0-15.711-7.04-15.711-15.717.001-8.68 7.035-15.72 15.711-15.72zm75.954 383.955H41.919V112.429h384.224v313.495zm-192.112-40.022c66.212 0 120.095-53.871 120.095-120.096 0-66.221-53.883-120.095-120.095-120.095-66.215 0-120.095 53.874-120.095 120.095 0 66.225 53.879 120.096 120.095 120.096zm0-215.979c52.866 0 95.884 43.016 95.884 95.884 0 52.866-43.019 95.885-95.884 95.885-52.869 0-95.884-43.019-95.884-95.885-.001-52.869 43.015-95.884 95.884-95.884zm-12.105 95.884v-60.526c0-6.682 5.423-12.105 12.105-12.105s12.105 5.423 12.105 12.105v48.42h49.935c6.679 0 12.105 5.427 12.105 12.105 0 6.68-5.427 12.105-12.105 12.105h-62.04c-6.682.001-12.105-5.425-12.105-12.104z"/></svg>

<?xml version="1.0" encoding="iso-8859-1"?>
<!-- Generator: Adobe Illustrator 16.0.0, SVG Export Plug-In . SVG Version: 6.00 Build 0)  -->
<!DOCTYPE svg PUBLIC "-//W3C//DTD SVG 1.1//EN" "http://www.w3.org/Graphics/SVG/1.1/DTD/svg11.dtd">
<svg version="1.1" id="Capa_1" xmlns="http://www.w3.org/2000/svg" xmlns:xlink="http://www.w3.org/1999/xlink" x="0px" y="0px"
	 width="16" height="16" viewBox="0 0 468.067 468.067" style="enable-background:new 0 0 468.067 468.067;"
	 xml:space="preserve">
	<path d="M431.38,0.225H36.685C16.458,0.225,0,16.674,0,36.898v394.268c0,20.221,16.458,36.677,36.685,36.677H431.38
		c20.232,0,36.688-16.456,36.688-36.677V36.898C468.062,16.668,451.606,0.225,431.38,0.225z M406.519,41.969
		c8.678,0,15.711,7.04,15.711,15.72c0,8.683-7.033,15.717-15.711,15.717c-8.688,0-15.723-7.04-15.723-15.717
		C390.796,49.009,397.83,41.969,406.519,41.969z M350.189,41.969c8.688,0,15.723,7.04,15.723,15.72
		c0,8.683-7.034,15.717-15.723,15.717c-8.684,0-15.711-7.04-15.711-15.717C334.479,49.009,341.513,41.969,350.189,41.969z
		 M426.143,425.924H41.919V112.429h384.224V425.924z M234.031,385.902c66.212,0,120.095-53.871,120.095-120.096
		c0-66.221-53.883-120.095-120.095-120.095c-66.215,0-120.095,53.874-120.095,120.095
		C113.936,332.031,167.815,385.902,234.031,385.902z M234.031,169.923c52.866,0,95.884,43.016,95.884,95.884
		c0,52.866-43.019,95.885-95.884,95.885c-52.869,0-95.884-43.019-95.884-95.885C138.146,212.938,181.162,169.923,234.031,169.923z
		 M221.926,265.807v-60.526c0-6.682,5.423-12.105,12.105-12.105s12.105,5.423,12.105,12.105v48.42h49.935
		c6.679,0,12.105,5.427,12.105,12.105c0,6.68-5.427,12.105-12.105,12.105h-62.04C227.349,277.912,221.926,272.486,221.926,265.807z"
		/>
</svg>
